X: 1
T: a Glezele Yash [Am]
C: Vladimir Shainsky
S: Transcription by Yaron Shragai 2018
Z: 2018 John Chambers <jc:trillian.mit.edu>
M: 2/4
L: 1/8
K: Am
|: "Am"AA Ac | e2 "E7"ed \
|  "Am"e2 a2 | e4 \
|  "A7"eg fe | "Dm"d4 \
|  "G"gf ed |1 "C"c2 "E7"B2 :|2 "C"c2- "E7"e2 ||
|: "Am"a2 e2 | "F"c'b a2 \
|  "G"gf ef | "C"g4 \
"I"\
|  "A7"ga "Dm"f/e/d | "E7"ze "Am"A2 \
|  "F"{B}cd "E7"Bc | "Am"A4 :|
